;FLAVOR:Marlin
;TIME:1241
;Filament used: 0.471942m
;Layer height: 0.2
;MINX:54.035
;MINY:67.259
;MINZ:0.2
;MAXX:165.964
;MAXY:152.72
;MAXZ:2
;Generated with Cura_SteamEngine 4.10.0
M140 S60
M105
M190 S60
M104 S200
M105
M109 S200
M82 ;absolute extrusion mode
; Ender 3 Custom Start G-code
G92 E0 ; Reset Extruder
G28 ; Home all axes
G1 Z2.0 F3000 ; Move Z Axis up little to prevent scratching of Heat Bed
G1 X0.1 Y20 Z0.3 F5000.0 ; Move to start position
G1 X0.1 Y200.0 Z0.3 F1500.0 E15 ; Draw the first line
G1 X0.4 Y200.0 Z0.3 F5000.0 ; Move to side a little
G1 X0.4 Y20 Z0.3 F1500.0 E30 ; Draw the second line
G92 E0 ; Reset Extruder
G1 Z2.0 F3000 ; Move Z Axis up little to prevent scratching of Heat Bed
G1 X5 Y20 Z0.3 F5000.0 ; Move over to prevent blob squish
G92 E0
G92 E0
G1 F1500 E-6.5
;LAYER_COUNT:10
;LAYER:0
M107
G0 F6000 X76.044 Y75.736 Z0.2
;TYPE:SKIRT
G1 F1500 E0
G1 F1200 X76.762 Y75.132 E0.03121
G1 X77.528 Y74.591 E0.0624
G1 X78.337 Y74.118 E0.09357
G1 X79.184 Y73.715 E0.12476
G1 X80.063 Y73.386 E0.15598
G1 X80.966 Y73.132 E0.18718
G1 X81.887 Y72.957 E0.21836
G1 X82.82 Y72.861 E0.24956
G1 X83.671 Y72.843 E0.27787
G1 X84.148 Y72.854 E0.29374
G1 X86.82 Y72.928 E0.38264
G1 X89.344 Y72.926 E0.46659
G1 X91.83 Y72.854 E0.54931
G1 X94.364 Y72.709 E0.63373
G1 X96.885 Y72.493 E0.71788
G1 X99.364 Y72.209 E0.80088
G1 X101.862 Y71.852 E0.8848
G1 X104.324 Y71.428 E0.9679
G1 X106.786 Y70.934 E1.05141
G1 X109.248 Y70.364 E1.13547
G1 X111.722 Y69.719 E1.2205
G1 X114.086 Y69.03 E1.3024
G1 X115.263 Y68.643 E1.34361
G1 X115.712 Y68.516 E1.35913
G1 X116.656 Y68.212 E1.39212
G1 X117.136 Y68.068 E1.40878
G1 X117.534 Y67.958 E1.42252
G1 X118.474 Y67.756 E1.4545
G1 X119.622 Y67.561 E1.49322
G1 X119.994 Y67.505 E1.50574
G1 X120.424 Y67.447 E1.52017
G1 X120.824 Y67.399 E1.53357
G1 X121.092 Y67.372 E1.54253
G1 X121.935 Y67.298 E1.57067
G1 X122.542 Y67.262 E1.5909
G1 X122.635 Y67.259 E1.59399
G1 X123.632 Y67.272 E1.62715
G1 X123.923 Y67.289 E1.63685
G1 X124.856 Y67.383 E1.66804
G1 X125.777 Y67.557 E1.69921
G1 X125.983 Y67.605 E1.70625
G1 X126.887 Y67.857 E1.73746
G1 X127.766 Y68.184 E1.76866
G1 X128.864 Y68.722 E1.80932
G1 X129.096 Y68.852 E1.81817
G1 X129.626 Y69.169 E1.83871
G1 X130.446 Y69.692 E1.87106
G1 X131.129 Y70.142 E1.89826
G1 X133.292 Y71.48 E1.98285
G1 X135.445 Y72.727 E2.06561
G1 X137.656 Y73.929 E2.14931
G1 X139.93 Y75.08 E2.23408
G1 X142.171 Y76.139 E2.31652
G1 X144.515 Y77.164 E2.40161
G1 X146.831 Y78.101 E2.48471
G1 X149.173 Y78.97 E2.56779
G1 X151.574 Y79.787 E2.65214
G1 X154.029 Y80.545 E2.7376
G1 X155.487 Y80.959 E2.78801
G1 X155.759 Y81.034 E2.7974
G1 X156.652 Y81.32 E2.82858
G1 X157.518 Y81.682 E2.8598
G1 X158.349 Y82.116 E2.89098
G1 X159.141 Y82.619 E2.92219
G1 X159.886 Y83.188 E2.95337
G1 X160.581 Y83.819 E2.98459
G1 X161.219 Y84.506 E3.01577
G1 X161.629 Y85.017 E3.03756
G1 X162.336 Y85.957 E3.07668
G1 X162.745 Y86.523 E3.09991
G1 X163.045 Y86.949 E3.11724
G1 X163.295 Y87.315 E3.13198
G1 X163.627 Y87.831 E3.15239
G1 X164.062 Y88.551 E3.18037
G1 X164.515 Y89.379 E3.21176
G1 X164.613 Y89.578 E3.21914
G1 X164.809 Y89.999 E3.23458
G1 X164.94 Y90.296 E3.24538
G1 X165.312 Y91.256 E3.27962
G1 X165.333 Y91.319 E3.28183
G1 X165.546 Y92.043 E3.30693
G1 X165.62 Y92.329 E3.31676
G1 X165.816 Y93.246 E3.34795
G1 X165.933 Y94.176 E3.37912
G1 X165.964 Y95.466 E3.42204
G1 X165.96 Y95.581 E3.42587
G1 X165.888 Y96.516 E3.45706
G1 X165.744 Y97.401 E3.48688
G1 X165.526 Y98.467 E3.52307
G1 X165.023 Y101.111 E3.61259
G1 X164.624 Y103.589 E3.69607
G1 X164.298 Y106.061 E3.779
G1 X164.038 Y108.587 E3.86346
G1 X163.851 Y111.082 E3.94667
G1 X163.734 Y113.603 E4.03061
G1 X163.689 Y116.125 E4.11451
G1 X163.714 Y118.614 E4.1973
G1 X163.812 Y121.146 E4.28157
G1 X163.983 Y123.711 E4.36708
G1 X164.149 Y125.531 E4.42786
G1 X164.255 Y126.564 E4.4624
G1 X164.439 Y128.432 E4.52483
G1 X164.602 Y130.149 E4.58219
G1 X164.754 Y131.826 E4.6382
G1 X164.878 Y133.284 E4.68687
G1 X164.934 Y134.001 E4.71079
G1 X164.983 Y134.725 E4.73492
G1 X165 Y135.051 E4.74578
G1 X165.012 Y135.358 E4.756
G1 X165.022 Y135.771 E4.76974
G1 X165.004 Y136.708 E4.80091
G1 X164.912 Y137.609 E4.83103
G1 X164.871 Y137.893 E4.84058
G1 X164.698 Y138.814 E4.87175
G1 X164.446 Y139.718 E4.90296
G1 X164.119 Y140.597 E4.93415
G1 X163.718 Y141.445 E4.96535
G1 X163.246 Y142.255 E4.99653
G1 X162.707 Y143.023 E5.02774
G1 X162.104 Y143.741 E5.05892
G1 X161.443 Y144.406 E5.09011
G1 X160.727 Y145.012 E5.12131
G1 X159.962 Y145.555 E5.15251
G1 X159.154 Y146.03 E5.18369
G1 X158.386 Y146.402 E5.21207
G1 X158.315 Y146.433 E5.21464
G1 X157.44 Y146.771 E5.24584
G1 X156.539 Y147.034 E5.27706
G1 X155.62 Y147.219 E5.30824
G1 X154.688 Y147.325 E5.33944
G1 X153.554 Y147.346 E5.37716
G1 X150.906 Y147.259 E5.46528
G1 X148.39 Y147.25 E5.54897
G1 X145.859 Y147.311 E5.63317
G1 X143.354 Y147.443 E5.7166
G1 X140.854 Y147.646 E5.80003
G1 X138.31 Y147.924 E5.88515
G1 X135.86 Y148.263 E5.96741
G1 X133.375 Y148.679 E6.05121
G1 X130.891 Y149.167 E6.13541
G1 X128.435 Y149.722 E6.21915
G1 X126.007 Y150.344 E6.30252
G1 X123.563 Y151.043 E6.38706
G1 X121.34 Y151.745 E6.4646
G1 X120.05 Y152.171 E6.50979
G1 X119.147 Y152.427 E6.541
G1 X118.226 Y152.605 E6.5722
G1 X117.294 Y152.704 E6.60338
G1 X116.245 Y152.72 E6.63827
G1 X116.029 Y152.713 E6.64546
G1 X115.093 Y152.643 E6.67668
G1 X114.168 Y152.493 E6.70784
G1 X113.258 Y152.265 E6.73905
G1 X112.371 Y151.96 E6.77024
G1 X111.513 Y151.581 E6.80144
G1 X111.071 Y151.35 E6.81803
G1 X110.868 Y151.238 E6.82574
G1 X110.067 Y150.751 E6.85692
G1 X109.418 Y150.282 E6.88355
G1 X109.241 Y150.144 E6.89102
G1 X108.588 Y149.592 E6.91945
G1 X108.24 Y149.274 E6.93513
G1 X106.296 Y147.548 E7.0216
G1 X104.352 Y145.918 E7.10598
G1 X102.373 Y144.352 E7.18991
G1 X100.389 Y142.871 E7.27226
G1 X98.294 Y141.397 E7.35746
G1 X96.221 Y140.025 E7.44014
G1 X94.068 Y138.687 E7.52445
G1 X91.928 Y137.44 E7.60683
G1 X89.678 Y136.21 E7.69212
G1 X87.439 Y135.069 E7.7757
G1 X85.199 Y134.005 E7.85818
G1 X82.853 Y132.973 E7.94342
G1 X80.545 Y132.033 E8.02631
G1 X78.18 Y131.147 E8.11031
G1 X75.795 Y130.33 E8.19416
G1 X73.41 Y129.587 E8.27725
G1 X70.981 Y128.906 E8.36115
G1 X68.485 Y128.28 E8.44674
G1 X66.381 Y127.813 E8.51842
G1 X65.258 Y127.568 E8.55665
G1 X64.358 Y127.365 E8.58734
G1 X63.821 Y127.24 E8.60567
G1 X63.484 Y127.158 E8.61721
G1 X63.241 Y127.096 E8.62555
G1 X62.901 Y127.005 E8.63726
G1 X62.593 Y126.918 E8.6479
G1 X61.961 Y126.729 E8.66984
G1 X61.075 Y126.422 E8.70103
G1 X60.218 Y126.041 E8.73222
G1 X59.397 Y125.588 E8.76341
G1 X58.617 Y125.067 E8.79461
G1 X57.884 Y124.481 E8.82582
G1 X57.204 Y123.836 E8.85699
G1 X56.582 Y123.134 E8.88819
G1 X56.021 Y122.382 E8.91939
G1 X55.675 Y121.839 E8.94081
G1 X55.593 Y121.702 E8.94612
G1 X55.146 Y120.878 E8.9773
G1 X54.771 Y120.018 E9.0085
G1 X54.47 Y119.13 E9.03969
G1 X54.246 Y118.219 E9.07089
G1 X54.101 Y117.292 E9.1021
G1 X54.035 Y116.357 E9.13328
G1 X54.049 Y115.419 E9.16448
G1 X54.143 Y114.486 E9.19567
G1 X54.432 Y113.111 E9.2424
G1 X54.5 Y112.866 E9.25085
G1 X54.789 Y111.974 E9.28204
G1 X55.062 Y111.307 E9.30601
G1 X55.327 Y110.716 E9.32755
G1 X55.496 Y110.356 E9.34078
G1 X55.662 Y110.019 E9.35328
G1 X55.802 Y109.746 E9.36348
G1 X56.146 Y109.095 E9.38797
G1 X56.308 Y108.802 E9.39911
G1 X56.62 Y108.253 E9.42011
G1 X56.964 Y107.663 E9.44282
G1 X57.225 Y107.226 E9.45975
G1 X57.575 Y106.646 E9.48228
G1 X57.929 Y106.069 E9.5048
G1 X58.555 Y105.069 E9.54404
G1 X58.874 Y104.567 E9.56382
G1 X59.26 Y103.97 E9.58747
G1 X59.632 Y103.4 E9.6101
G1 X60.33 Y102.346 E9.65215
G1 X60.884 Y101.526 E9.68507
G1 X61.187 Y101.082 E9.70294
G1 X61.772 Y100.241 E9.73702
G1 X62.258 Y99.558 E9.7649
G1 X62.428 Y99.323 E9.77455
G1 X63.766 Y97.427 E9.85173
G1 X65.133 Y95.377 E9.93368
G1 X66.498 Y93.199 E10.01917
G1 X67.747 Y91.073 E10.10118
G1 X68.973 Y88.848 E10.18568
G1 X70.125 Y86.605 E10.26954
G1 X71.212 Y84.339 E10.35313
G1 X72.239 Y82.025 E10.43734
G1 X72.645 Y81.04 E10.47277
G1 X72.732 Y80.853 E10.47963
G1 X73.171 Y79.792 E10.51782
G1 X73.567 Y78.942 E10.54901
G1 X74.033 Y78.128 E10.58021
G1 X74.567 Y77.357 E10.6114
G1 X75.234 Y76.559 E10.64599
G1 X75.381 Y76.399 E10.65322
G1 X76.044 Y75.736 E10.68441
G0 F6000 X76.327 Y76.019
G1 F1200 X77.033 Y75.428 E10.71503
G1 X77.787 Y74.9 E10.74564
G1 X78.584 Y74.44 E10.77625
G1 X79.419 Y74.05 E10.8069
G1 X80.283 Y73.735 E10.83749
G1 X81.172 Y73.495 E10.86812
G1 X82.079 Y73.334 E10.89876
G1 X82.996 Y73.252 E10.92938
G1 X83.665 Y73.243 E10.95163
G1 X84.132 Y73.253 E10.96717
G1 X86.809 Y73.328 E11.05624
G1 X89.321 Y73.326 E11.13979
G1 X91.865 Y73.252 E11.22444
G1 X94.42 Y73.106 E11.30956
G1 X96.894 Y72.894 E11.39214
G1 X99.435 Y72.603 E11.47721
G1 X101.915 Y72.249 E11.56053
G1 X104.399 Y71.821 E11.64437
G1 X106.89 Y71.321 E11.72887
G1 X109.326 Y70.757 E11.81203
G1 X111.83 Y70.104 E11.8981
G1 X114.205 Y69.412 E11.98038
G1 X115.388 Y69.023 E12.0218
G1 X115.844 Y68.894 E12.03756
G1 X116.779 Y68.593 E12.07023
G1 X117.05 Y68.509 E12.07967
G1 X117.248 Y68.451 E12.08653
G1 X117.636 Y68.345 E12.09991
G1 X118.541 Y68.151 E12.13069
G1 X119.689 Y67.956 E12.16942
G1 X120.047 Y67.901 E12.18147
G1 X120.477 Y67.843 E12.1959
G1 X120.869 Y67.796 E12.20903
G1 X121.127 Y67.771 E12.21765
G1 X121.97 Y67.697 E12.2458
G1 X122.555 Y67.662 E12.26529
G1 X122.648 Y67.659 E12.26839
G1 X123.608 Y67.671 E12.30032
G1 X123.899 Y67.688 E12.31001
G1 X124.815 Y67.782 E12.34064
G1 X125.686 Y67.947 E12.37012
G1 X125.892 Y67.995 E12.37716
G1 X126.779 Y68.242 E12.40778
G1 X127.641 Y68.566 E12.43841
G1 X128.669 Y69.071 E12.47651
G1 X128.901 Y69.201 E12.48535
G1 X129.412 Y69.506 E12.50515
G1 X130.226 Y70.026 E12.53727
G1 X130.932 Y70.491 E12.56539
G1 X133.071 Y71.814 E12.64904
G1 X135.248 Y73.075 E12.73272
G1 X137.49 Y74.293 E12.81758
G1 X139.728 Y75.427 E12.90103
G1 X142.034 Y76.516 E12.98585
G1 X144.323 Y77.517 E13.06894
G1 X146.709 Y78.482 E13.15455
G1 X149.053 Y79.353 E13.23772
G1 X151.464 Y80.173 E13.32242
G1 X153.888 Y80.921 E13.40679
G1 X155.308 Y81.324 E13.45588
G1 X155.654 Y81.419 E13.46782
G1 X156.53 Y81.701 E13.49843
G1 X157.379 Y82.058 E13.52906
G1 X158.193 Y82.488 E13.55968
G1 X158.967 Y82.986 E13.59029
G1 X159.695 Y83.55 E13.62092
G1 X160.371 Y84.175 E13.65154
G1 X160.991 Y84.856 E13.68217
G1 X161.31 Y85.258 E13.69924
G1 X161.893 Y86.031 E13.73144
G1 X162.36 Y86.672 E13.75782
G1 X162.715 Y87.174 E13.77827
G1 X162.965 Y87.54 E13.79301
G1 X163.285 Y88.038 E13.8127
G1 X163.72 Y88.758 E13.84068
G1 X164.156 Y89.556 E13.87093
G1 X164.254 Y89.755 E13.8783
G1 X164.443 Y90.16 E13.89317
G1 X164.574 Y90.457 E13.90396
G1 X164.932 Y91.383 E13.93698
G1 X164.953 Y91.446 E13.93919
G1 X165.159 Y92.143 E13.96337
G1 X165.233 Y92.429 E13.97319
G1 X165.425 Y93.329 E14.0038
G1 X165.538 Y94.243 E14.03443
G1 X165.565 Y95.452 E14.07465
G1 X165.561 Y95.567 E14.07848
G1 X165.489 Y96.485 E14.10911
G1 X165.353 Y97.321 E14.13728
G1 X165.117 Y98.477 E14.17652
G1 X164.63 Y101.039 E14.26326
G1 X164.231 Y103.515 E14.34667
G1 X163.899 Y106.034 E14.43118
G1 X163.639 Y108.55 E14.51531
G1 X163.453 Y111.034 E14.59816
G1 X163.334 Y113.611 E14.68396
G1 X163.289 Y116.122 E14.76749
G1 X163.314 Y118.633 E14.85101
G1 X163.412 Y121.152 E14.93486
G1 X163.584 Y123.737 E15.02102
G1 X163.754 Y125.604 E15.08338
G1 X163.857 Y126.603 E15.11678
G1 X164.041 Y128.47 E15.17918
G1 X164.207 Y130.229 E15.23794
G1 X164.356 Y131.86 E15.29241
G1 X164.48 Y133.316 E15.34102
G1 X164.535 Y134.029 E15.3648
G1 X164.584 Y134.746 E15.3887
G1 X164.601 Y135.072 E15.39956
G1 X164.612 Y135.367 E15.40938
G1 X164.622 Y135.78 E15.42312
G1 X164.604 Y136.701 E15.45376
G1 X164.516 Y137.552 E15.48222
G1 X164.475 Y137.836 E15.49176
G1 X164.304 Y138.74 E15.52236
G1 X164.055 Y139.627 E15.553
G1 X163.731 Y140.488 E15.5836
G1 X163.332 Y141.318 E15.61423
G1 X162.863 Y142.11 E15.64484
G1 X162.328 Y142.859 E15.67546
G1 X161.729 Y143.558 E15.70607
G1 X161.072 Y144.203 E15.7367
G1 X160.361 Y144.788 E15.76732
G1 X159.602 Y145.31 E15.79796
G1 X158.801 Y145.763 E15.82857
G1 X158.226 Y146.035 E15.84972
G1 X158.155 Y146.066 E15.8523
G1 X157.296 Y146.398 E15.88293
G1 X156.411 Y146.653 E15.91356
G1 X155.508 Y146.831 E15.94417
G1 X154.592 Y146.93 E15.97482
G1 X153.567 Y146.946 E16.00891
G1 X150.92 Y146.859 E16.097
G1 X148.383 Y146.85 E16.18138
G1 X145.827 Y146.912 E16.26642
G1 X143.334 Y147.043 E16.34945
G1 X140.814 Y147.247 E16.43354
G1 X138.283 Y147.525 E16.51823
G1 X135.811 Y147.866 E16.60123
G1 X133.269 Y148.292 E16.68695
G1 X130.824 Y148.772 E16.76983
G1 X128.361 Y149.329 E16.85381
G1 X125.873 Y149.966 E16.93924
G1 X123.481 Y150.65 E17.02198
G1 X121.221 Y151.364 E17.10081
G1 X119.924 Y151.792 E17.14624
G1 X119.038 Y152.042 E17.17686
G1 X118.134 Y152.215 E17.20747
G1 X117.218 Y152.308 E17.23809
G1 X116.258 Y152.32 E17.27003
G1 X116.042 Y152.313 E17.27721
G1 X115.124 Y152.244 E17.30783
G1 X114.215 Y152.095 E17.33847
G1 X113.323 Y151.867 E17.36909
G1 X112.454 Y151.563 E17.39971
G1 X111.264 Y151 E17.4435
G1 X111.061 Y150.888 E17.45121
G1 X110.275 Y150.409 E17.48182
G1 X109.664 Y149.966 E17.50692
G1 X109.487 Y149.828 E17.51439
G1 X108.858 Y149.297 E17.54177
G1 X108.492 Y148.963 E17.55825
G1 X106.573 Y147.259 E17.64361
G1 X104.591 Y145.597 E17.72964
G1 X102.637 Y144.05 E17.81253
G1 X100.613 Y142.539 E17.89654
G1 X98.538 Y141.08 E17.98091
G1 X96.431 Y139.685 E18.06495
G1 X94.274 Y138.345 E18.14941
G1 X92.099 Y137.077 E18.23315
G1 X89.86 Y135.853 E18.31802
G1 X87.642 Y134.723 E18.40081
G1 X85.353 Y133.636 E18.48509
G1 X83.016 Y132.608 E18.57001
G1 X80.669 Y131.652 E18.6543
G1 X78.344 Y130.781 E18.73688
G1 X75.896 Y129.942 E18.82295
G1 X73.532 Y129.206 E18.9053
G1 X71.081 Y128.519 E18.98996
G1 X68.59 Y127.894 E19.07538
G1 X66.419 Y127.412 E19.14934
G1 X65.345 Y127.178 E19.1859
G1 X64.449 Y126.976 E19.21645
G1 X63.916 Y126.851 E19.23466
G1 X63.344 Y126.71 E19.25425
G1 X63.004 Y126.619 E19.26596
G1 X62.708 Y126.535 E19.27619
G1 X62.076 Y126.346 E19.29813
G1 X61.206 Y126.044 E19.32876
G1 X60.366 Y125.668 E19.35937
G1 X59.561 Y125.22 E19.39002
G1 X58.799 Y124.704 E19.42062
G1 X58.084 Y124.124 E19.45125
G1 X57.422 Y123.484 E19.48187
G1 X56.818 Y122.789 E19.5125
G1 X56.277 Y122.045 E19.54309
G1 X56.018 Y121.634 E19.55925
G1 X55.936 Y121.497 E19.56456
G1 X55.498 Y120.687 E19.59519
G1 X55.131 Y119.842 E19.62583
G1 X54.84 Y118.969 E19.65644
G1 X54.625 Y118.074 E19.68705
G1 X54.489 Y117.163 E19.71769
G1 X54.433 Y116.244 E19.74831
G1 X54.456 Y115.324 E19.77892
G1 X54.559 Y114.409 E19.80954
G1 X54.817 Y113.218 E19.85007
G1 X54.885 Y112.973 E19.85853
G1 X55.17 Y112.098 E19.88914
G1 X55.427 Y111.471 E19.91168
G1 X55.692 Y110.88 E19.93322
G1 X55.855 Y110.533 E19.94597
G1 X56.021 Y110.196 E19.95847
G1 X56.155 Y109.933 E19.96828
G1 X56.497 Y109.286 E19.99262
G1 X56.656 Y108.999 E20.00354
G1 X56.966 Y108.454 E20.02439
G1 X57.308 Y107.868 E20.04696
G1 X57.567 Y107.433 E20.0638
G1 X57.916 Y106.855 E20.08625
G1 X58.268 Y106.281 E20.10865
G1 X58.893 Y105.284 E20.14779
G1 X59.21 Y104.784 E20.16748
G1 X59.594 Y104.189 E20.19103
G1 X59.965 Y103.621 E20.21359
G1 X60.662 Y102.57 E20.25554
G1 X61.214 Y101.752 E20.28836
G1 X61.516 Y101.311 E20.30614
G1 X62.098 Y100.472 E20.3401
G1 X62.582 Y99.792 E20.36786
G1 X62.801 Y99.488 E20.38032
G1 X64.063 Y97.701 E20.45309
G1 X65.498 Y95.549 E20.53911
G1 X66.822 Y93.435 E20.62208
G1 X68.115 Y91.236 E20.70692
G1 X69.322 Y89.044 E20.79015
G1 X70.485 Y86.782 E20.87475
G1 X71.574 Y84.508 E20.95861
G1 X72.604 Y82.191 E21.04294
G1 X73.015 Y81.192 E21.07887
G1 X73.105 Y80.998 E21.08598
G1 X73.541 Y79.945 E21.12389
G1 X73.93 Y79.111 E21.1545
G1 X74.389 Y78.313 E21.18512
G1 X74.917 Y77.558 E21.21576
G1 X75.528 Y76.829 E21.2474
G1 X75.675 Y76.669 E21.25462
G1 X76.327 Y76.019 E21.28525
G0 F6000 X76.61 Y76.303
G1 F1200 X77.303 Y75.725 E21.31526
G1 X78.046 Y75.21 E21.34533
G1 X78.83 Y74.763 E21.37534
G1 X79.651 Y74.387 E21.40538
G1 X80.503 Y74.085 E21.43544
G1 X81.377 Y73.86 E21.46546
G1 X82.268 Y73.713 E21.4955
G1 X83.169 Y73.646 E21.52555
G1 X83.658 Y73.643 E21.54181
G1 X84.116 Y73.653 E21.55705
G1 X86.798 Y73.728 E21.64629
G1 X89.332 Y73.726 E21.73057
G1 X91.9 Y73.652 E21.81601
G1 X94.406 Y73.508 E21.8995
G1 X96.941 Y73.291 E21.98412
